assets/figure.svg

<svg width="375" height="562" viewBox="0 0 375 562" fill="none" xmlns="http://www.w3.org/2000/svg">
<path fill-rule="evenodd" clip-rule="evenodd" d="M135.567 77.2996C134.033 93.7828 134.859 130.111 141.928 134.635L179.978 128.198C179.97 128.134 179.961 128.07 179.953 128.006C193.776 124.148 202.6 111.015 199.996 97.322L195.053 71.3359C192.259 56.6424 177.363 46.8676 161.783 49.5033L159.159 49.9472C145.011 52.3408 135.163 64.1462 135.567 77.2996Z" fill="black"/>
<path fill-rule="evenodd" clip-rule="evenodd" d="M177.025 90.8812C181.089 84.1016 183.224 76.2745 181.096 68.2688C174.964 45.202 142.409 56.0121 138.128 68.902C133.847 81.7919 140.308 111.558 149.139 112.238C152.661 112.51 159.431 109.24 165.91 103.748L167.303 135.901L194.318 131.331L177.025 90.8812Z" fill="#9C674B"/>
<path fill-rule="evenodd" clip-rule="evenodd" d="M174.912 91.8265C176.257 106.77 180.03 123.457 185.112 126.71L223.162 120.273C218.675 85.1749 200.745 102.094 194.524 69.3857C193.022 68.4247 191.594 67.4638 190.208 66.6611L190.067 65.692C181.059 54.0853 171.49 49.1387 161.361 50.8523C146.167 53.4226 142.639 60.9016 139.633 67.2534C144.565 76.6179 156.694 76.0784 168.394 80.4563C169.454 79.2954 170.928 78.4577 172.652 78.1661C176.638 77.4919 180.448 79.9924 181.163 83.7512C181.878 87.51 179.227 91.1037 175.241 91.7779C175.131 91.7965 175.021 91.8127 174.912 91.8265Z" fill="black"/>
<g style="mix-blend-mode:luminosity">
<path fill-rule="evenodd" clip-rule="evenodd" d="M208.401 261L151.999 421.231L112.465 539.331H89.9223L144.266 261L208.401 261Z" fill="#1F28CF"/>
<path fill-rule="evenodd" clip-rule="evenodd" d="M222.341 261C222.954 315.979 222.511 389.999 223.94 393.426C224.892 395.71 254.513 421.742 312.804 471.52L301.185 492.732C231.98 444.819 195.609 417.67 192.071 411.287C186.764 401.711 160.101 313.597 146.229 261H222.341Z" fill="#2B44FF"/>
<path fill-rule="evenodd" clip-rule="evenodd" d="M333.246 485.812L313.605 469.758L297.776 490.012C296.567 505.289 291.865 522.42 283.67 541.404L287.268 544.646L315.91 507.995L323.91 493.836L325.709 495.457L333.246 485.812Z" fill="#191847"/>
<path fill-rule="evenodd" clip-rule="evenodd" d="M114.557 562L113.384 535.552H88.7493C77.0685 544.368 61.8187 551.505 43 556.962V562H87.5763L102.826 559.481V562H114.557Z" fill="#121212"/>
</g>
<path fill-rule="evenodd" clip-rule="evenodd" d="M261.142 239.32L233.746 234.32C241.061 288.924 245.098 317.926 245.859 321.325C247.57 328.974 239.145 338.567 235.321 343.854C243.553 349.288 245.203 335.15 255.552 342.195C264.999 348.625 271.3 358.26 284.474 353.56C286.094 352.982 288.292 350.079 284.889 346.857C276.412 338.828 264.554 325.332 263.346 321.392C261.7 316.019 260.965 288.662 261.142 239.32Z" fill="#9C674B"/>
<path fill-rule="evenodd" clip-rule="evenodd" d="M71.8367 106.529L38.0807 67.9109C33.943 56.8186 29.2948 47.6982 24.136 40.5495C22.3821 38.9268 18.9886 37.1226 20.3383 44.5821C21.6881 52.0416 22.7913 59.9533 20.4804 61.2902C18.1695 62.6271 14.7869 58.4291 11.7434 60.9311C9.71447 62.599 15.8828 68.5382 30.2486 78.7487L51.0685 118.544L71.8367 106.529Z" fill="#9C674B"/>
<path fill-rule="evenodd" clip-rule="evenodd" d="M185.51 168.307L186.822 156.709C139.199 139.118 95.136 106.543 54.6333 58.9832L13.6675 98.3343C70.3396 145.117 127.832 172.878 185.51 168.307Z" fill="#191847"/>
<path fill-rule="evenodd" clip-rule="evenodd" d="M234.598 268.831H131.988C155.76 214.328 167.647 168.029 167.647 129.933L198.599 125.584C222.924 162.475 229.794 207.894 234.598 268.831Z" fill="url(#paint0_linear)"/>
<path fill-rule="evenodd" clip-rule="evenodd" d="M199.254 125.605C199.25 125.598 199.246 125.591 199.242 125.584L197.221 125.584C194.804 125.663 191.121 125.804 186.174 126.009L178.695 146.163C177.904 170.735 173.284 220.256 164.835 294.724H232.098C231.921 299.867 231.63 305.058 231.225 310.297H281.238C273.757 230.712 246.437 169.141 199.279 125.584L199.254 125.605V125.605Z" fill="#2F3676"/>
<path fill-rule="evenodd" clip-rule="evenodd" d="M227.655 228.915C225.741 260.975 220.948 283.077 213.277 295.219H232.081C232.904 272.152 231.429 250.051 227.655 228.915V228.915Z" fill="black" fill-opacity="0.1"/>
<path fill-rule="evenodd" clip-rule="evenodd" d="M217.126 256.266L183.959 241.727V256.266H217.126Z" fill="#DFA6BA" fill-opacity="0.6"/>
<defs>
<linearGradient id="paint0_linear" x1="183.293" y1="125.584" x2="183.293" y2="268.831" gradientUnits="userSpaceOnUse">
<stop stop-color="#D2E94B"/>
<stop offset="1" stop-color="#758049"/>
</linearGradient>
</defs>
</svg>

<svg width="375" height="562" fill="none" xmlns="http://www.w3.org/2000/svg">
  <path fill-rule="evenodd" clip-rule="evenodd" d="M135.6 77.3c-1.6 16.5-.7 52.8 6.3 57.3l38-6.4v-.2A27 27 0 00200 97.3l-5-26a28.6 28.6 0 00-33.2-21.8l-2.6.4a27.5 27.5 0 00-23.6 27.4z" fill="#000"/>
  <path fill-rule="evenodd" clip-rule="evenodd" d="M177 90.9a29 29 0 004.1-22.6c-6.1-23.1-38.7-12.3-43 .6-4.3 12.9 2.2 42.7 11 43.3 3.6.3 10.3-3 16.8-8.5l1.4 32.2 27-4.6L177 91z" fill="#9C674B"/>
  <path fill-rule="evenodd" clip-rule="evenodd" d="M175 91.8c1.3 15 5 31.7 10.1 35l38-6.5c-4.4-35.1-22.4-18.2-28.6-51l-4.3-2.6-.1-1C181 54 171.5 49 161.4 50.9c-15.2 2.5-18.8 10-21.8 16.4 5 9.3 17 8.8 28.8 13.2 1-1.2 2.5-2 4.3-2.3 4-.7 7.7 1.8 8.5 5.6a7 7 0 01-6.3 8z" fill="#000"/>
  <g style="mix-blend-mode:luminosity" fill-rule="evenodd" clip-rule="evenodd">
    <path d="M208.4 261L152 421.2l-39.5 118.1H89.9L144.3 261h64.1z" fill="#1F28CF"/>
    <path d="M222.3 261c.7 55 .2 129 1.6 132.4 1 2.3 30.6 28.3 88.9 78.1l-11.6 21.2c-69.2-47.9-105.6-75-109.1-81.4-5.3-9.6-32-97.7-45.9-150.3h76.1z" fill="#2B44FF"/>
    <path d="M333.2 485.8l-19.6-16-15.8 20.2c-1.2 15.3-6 32.4-14.1 51.4l3.6 3.2 28.6-36.6 8-14.2 1.8 1.7 7.5-9.7z" fill="#191847"/>
    <path d="M114.6 562l-1.2-26.4H88.7C77.1 544.4 61.8 551.5 43 557v5h44.6l15.2-2.5v2.5h11.8z" fill="#121212"/>
  </g>
  <path fill-rule="evenodd" clip-rule="evenodd" d="M261.1 239.3l-27.4-5c7.4 54.6 11.4 83.6 12.2 87 1.7 7.7-6.8 17.3-10.6 22.6 8.3 5.4 9.9-8.8 20.3-1.7 9.4 6.4 15.7 16 28.9 11.4 1.6-.6 3.8-3.5.4-6.7-8.5-8-20.3-21.6-21.6-25.5-1.6-5.4-2.3-32.7-2.2-82zM71.8 106.5L38.1 68c-4.2-11-8.8-20.2-14-27.4-1.7-1.6-5.1-3.4-3.8 4 1.4 7.5 2.5 15.5.2 16.8-2.3 1.3-5.7-2.9-8.8-.4-2 1.7 4.2 7.6 18.5 17.8l20.9 39.8 20.7-12z" fill="#9C674B"/>
  <path fill-rule="evenodd" clip-rule="evenodd" d="M185.5 168.3l1.3-11.6C139.2 139.1 95.1 106.5 54.6 59l-41 39.3c56.7 46.8 114.2 74.6 172 70z" fill="#191847"/>
  <path fill-rule="evenodd" clip-rule="evenodd" d="M234.6 268.8H132c23.8-54.5 35.6-100.8 35.6-138.9l31-4.3c24.3 36.9 31.2 82.3 36 143.2z" fill="url(#paint0_linear)"/>
  <path fill-rule="evenodd" clip-rule="evenodd" d="M199.3 125.6h-2l-11.1.4-7.5 20.2c-.8 24.5-5.4 74-13.9 148.5h67.3l-.9 15.6h50c-7.4-79.6-34.8-141.2-82-184.7z" fill="#2F3676"/>
  <path fill-rule="evenodd" clip-rule="evenodd" d="M227.7 229c-2 32-6.8 54-14.4 66.2H232c.8-23-.7-45.1-4.4-66.3z" fill="#000" fill-opacity=".1"/>
  <path fill-rule="evenodd" clip-rule="evenodd" d="M217.1 256.3L184 241.7v14.6H217z" fill="#DFA6BA" fill-opacity=".6"/>
  <defs>
    <linearGradient id="paint0_linear" x1="183.3" y1="125.6" x2="183.3" y2="268.8" gradientUnits="userSpaceOnUse">
      <stop stop-color="#D2E94B"/>
      <stop offset="1" stop-color="#758049"/>
    </linearGradient>
  </defs>
</svg>
